packages/core/src/svgs/tokens/branded/REV3L.svg

<svg width="24" height="24" viewBox="0 0 24 24" fill="none" xmlns="http://www.w3.org/2000/svg">
<path d="M16.3749 2.62505L14.5 5.75004H7.83123C6.86248 5.75004 5.125 6.48753 5.125 8.87502C5.125 11.2625 6.96249 11.8563 7.93749 12.0001H11.0625L6.37499 21.375H2.31249L5.74999 14.4999C4.49999 14.075 2 12.9687 2 8.87502C2 4.78129 5.74999 2.62505 7.62498 2.62505H16.3749ZM7.62498 21.375L9.18741 18.25H16.1687C17.1375 18.25 18.8749 17.5126 18.8749 15.125C18.8749 12.7376 17.0375 12.1437 16.0624 12.0001H12.625L17.625 2.62505H21.6875L18.2499 9.4375C19.5 9.875 22 11.0313 22 15.125C22 19.2188 18.8749 21.375 16.3749 21.375H7.62498Z" fill="url(#paint0_linear_364_10473)"/>
<defs>
<linearGradient id="paint0_linear_364_10473" x1="7.89283" y1="3.6295" x2="15.7649" y2="20.9373" gradientUnits="userSpaceOnUse">
<stop stop-color="#242A3F"/>
<stop offset="0.38" stop-color="#321B65"/>
<stop offset="0.73" stop-color="#622065"/>
<stop offset="1" stop-color="#C56058"/>
</linearGradient>
</defs>
</svg>

<svg xmlns="http://www.w3.org/2000/svg" width="24" height="24" fill="none" viewBox="0 0 24 24">
    <path fill="url(#REV3L__a)" d="M16.375 2.625 14.5 5.75H7.831c-.969 0-2.706.738-2.706 3.125S6.962 11.856 7.937 12h3.125l-4.687 9.375H2.312L5.75 14.5C4.5 14.075 2 12.969 2 8.875s3.75-6.25 5.625-6.25zm-8.75 18.75 1.562-3.125h6.982c.968 0 2.706-.737 2.706-3.125S17.038 12.144 16.062 12h-3.437l5-9.375h4.063L18.25 9.438C19.5 9.875 22 11.03 22 15.125s-3.125 6.25-5.625 6.25z"/>
    <defs>
        <linearGradient id="REV3L__a" x1="7.893" x2="15.765" y1="3.63" y2="20.937" gradientUnits="userSpaceOnUse">
            <stop stop-color="#242A3F"/>
            <stop offset=".38" stop-color="#321B65"/>
            <stop offset=".73" stop-color="#622065"/>
            <stop offset="1" stop-color="#C56058"/>
        </linearGradient>
    </defs>
</svg>
